src/svg/arrow-alt-circle-left.svg

<svg height="1000" width="1000.0" xmlns="http://www.w3.org/2000/svg">
    <path d="m500 984.4c-267.6 0-484.4-216.8-484.4-484.4s216.8-484.4 484.4-484.4 484.4 216.8 484.4 484.4-216.8 484.4-484.4 484.4z m226.6-570.3h-226.6v-138.5c0-20.9-25.4-31.5-40-16.6l-223.3 224.4c-9.2 9.2-9.2 23.8 0 33l223.3 224.4c14.8 14.9 40 4.3 40-16.6v-138.3h226.6c12.9 0 23.4-10.5 23.4-23.4v-125c0-12.9-10.5-23.4-23.4-23.4z" />
  </svg>

<svg height="1000" width="1000" xmlns="http://www.w3.org/2000/svg"><path d="M500 984.4C232.4 984.4 15.6 767.6 15.6 500S232.4 15.6 500 15.6 984.4 232.4 984.4 500 767.6 984.4 500 984.4zM726.6 414.1H500V275.6c0 -20.9 -25.4 -31.5 -40 -16.6L236.7 483.4c-9.2 9.2 -9.2 23.8 0 33L460 740.8c14.8 14.9 40 4.3 40 -16.6V585.9h226.6c12.9 0 23.4 -10.5 23.4 -23.4v-125c0 -12.9 -10.5 -23.4 -23.4 -23.4z"/></svg>
